( generated with hf2gcode 0.2.2 )
G21 ( base unit mm )
G90 ( absolute distance mode )
G94 ( Feed Rate Mode: Units per minute Mode )
G17 ( X-Y plane )
M3 S10000
( text="hello how|are you doing|", font="gothgbt" )
( scale=0.500000, feed=200.000000, precision=3 )
F200.000
G0 Z1.000 ( Pen-Up at start)
;h = LHMJMXKYLYNZO[ RNJMHNGNYPZ RLHOFOXQYO[ ROPROTNUMVNXOYOWPWYU[T] RTNVOVYU[ RROSOUPUYT]T`UbVbT`
G0 X1.500 Y5.000
G1 Z-1.000 ( Pen-Down )
G1 X2.000 Y4.000
G1 Y-3.000
G1 X1.000 Y-3.500
G1 X1.500
G1 X2.500 Y-4.000
G1 X3.000 Y-4.500
G0 Z1.000 ( Pen-Up )
G0 X2.500 Y4.000
G1 Z-1.000 ( Pen-Down )
G1 X2.000 Y5.000
G1 X2.500 Y5.500
G1 Y-3.500
G1 X3.500 Y-4.000
G0 Z1.000 ( Pen-Up )
G0 X1.500 Y5.000
G1 Z-1.000 ( Pen-Down )
G1 X3.000 Y6.000
G1 Y-3.000
G1 X4.000 Y-3.500
G1 X3.000 Y-4.500
G0 Z1.000 ( Pen-Up )
G0 Y1.000
G1 Z-1.000 ( Pen-Down )
G1 X4.500 Y1.500
G1 X5.500 Y2.000
G1 X6.000 Y2.500
G1 X6.500 Y2.000
G1 X7.500 Y1.500
G1 X8.000
G1 X7.000 Y1.000
G1 Y-3.500
G1 X6.000 Y-4.500
G1 X5.500 Y-5.500
G0 Z1.000 ( Pen-Up )
G0 Y2.000
G1 Z-1.000 ( Pen-Down )
G1 X6.500 Y1.500
G1 Y-3.500
G1 X6.000 Y-4.500
G0 Z1.000 ( Pen-Up )
G0 X4.500 Y1.500
G1 Z-1.000 ( Pen-Down )
G1 X5.000
G1 X6.000 Y1.000
G1 Y-3.500
G1 X5.500 Y-5.500
G1 Y-7.000
G1 X6.000 Y-8.000
G1 X6.500
G1 X5.500 Y-7.000
G0 Z1.000 ( Pen-Up, EOG )
;e = NONXLYMYOZP[ ROOOYQZ RPOPXRYSYQZP[ RNORNTMWQURPU RSNVQ RPORNUR
G0 X11.000 Y1.500
G1 Z-1.000 ( Pen-Down )
G1 Y-3.000
G1 X10.000 Y-3.500
G1 X10.500
G1 X11.500 Y-4.000
G1 X12.000 Y-4.500
G0 Z1.000 ( Pen-Up )
G0 X11.500 Y1.500
G1 Z-1.000 ( Pen-Down )
G1 Y-3.500
G1 X12.500 Y-4.000
G0 Z1.000 ( Pen-Up )
G0 X12.000 Y1.500
G1 Z-1.000 ( Pen-Down )
G1 Y-3.000
G1 X13.000 Y-3.500
G1 X13.500
G1 X12.500 Y-4.000
G1 X12.000 Y-4.500
G0 Z1.000 ( Pen-Up )
G0 X11.000 Y1.500
G1 Z-1.000 ( Pen-Down )
G1 X13.000 Y2.000
G1 X14.000 Y2.500
G1 X15.500 Y0.500
G1 X14.500 Y0.000
G1 X12.000 Y-1.500
G0 Z1.000 ( Pen-Up )
G0 X13.500 Y2.000
G1 Z-1.000 ( Pen-Down )
G1 X15.000 Y0.500
G0 Z1.000 ( Pen-Up )
G0 X12.000 Y1.500
G1 Z-1.000 ( Pen-Down )
G1 X13.000 Y2.000
G1 X14.500 Y0.000
G0 Z1.000 ( Pen-Up, EOG )
;l = PHQJQXOYPYRZS[ RRJQHRGRYTZ RPHSFSXUYVYTZS[
G0 X17.500 Y5.000
G1 Z-1.000 ( Pen-Down )
G1 X18.000 Y4.000
G1 Y-3.000
G1 X17.000 Y-3.500
G1 X17.500
G1 X18.500 Y-4.000
G1 X19.000 Y-4.500
G0 Z1.000 ( Pen-Up )
G0 X18.500 Y4.000
G1 Z-1.000 ( Pen-Down )
G1 X18.000 Y5.000
G1 X18.500 Y5.500
G1 Y-3.500
G1 X19.500 Y-4.000
G0 Z1.000 ( Pen-Up )
G0 X17.500 Y5.000
G1 Z-1.000 ( Pen-Down )
G1 X19.000 Y6.000
G1 Y-3.000
G1 X20.000 Y-3.500
G1 X20.500
G1 X19.500 Y-4.000
G1 X19.000 Y-4.500
G0 Z1.000 ( Pen-Up, EOG )
;l = PHQJQXOYPYRZS[ RRJQHRGRYTZ RPHSFSXUYVYTZS[
G0 X22.500 Y5.000
G1 Z-1.000 ( Pen-Down )
G1 X23.000 Y4.000
G1 Y-3.000
G1 X22.000 Y-3.500
G1 X22.500
G1 X23.500 Y-4.000
G1 X24.000 Y-4.500
G0 Z1.000 ( Pen-Up )
G0 X23.500 Y4.000
G1 Z-1.000 ( Pen-Down )
G1 X23.000 Y5.000
G1 X23.500 Y5.500
G1 Y-3.500
G1 X24.500 Y-4.000
G0 Z1.000 ( Pen-Up )
G0 X22.500 Y5.000
G1 Z-1.000 ( Pen-Down )
G1 X24.000 Y6.000
G1 Y-3.000
G1 X25.000 Y-3.500
G1 X25.500
G1 X24.500 Y-4.000
G1 X24.000 Y-4.500
G0 Z1.000 ( Pen-Up, EOG )
;o = MOMXKY RNPNXQZ ROOOXQYRZ RKYMYOZP[RZUYWY RMOOORNTMUNWOYOWPWY RSNVPVX RRNSOUPUY
G0 X28.000 Y1.500
G1 Z-1.000 ( Pen-Down )
G1 Y-3.000
G1 X27.000 Y-3.500
G0 Z1.000 ( Pen-Up )
G0 X28.500 Y1.000
G1 Z-1.000 ( Pen-Down )
G1 Y-3.000
G1 X30.000 Y-4.000
G0 Z1.000 ( Pen-Up )
G0 X29.000 Y1.500
G1 Z-1.000 ( Pen-Down )
G1 Y-3.000
G1 X30.000 Y-3.500
G1 X30.500 Y-4.000
G0 Z1.000 ( Pen-Up )
G0 X27.000 Y-3.500
G1 Z-1.000 ( Pen-Down )
G1 X28.000
G1 X29.000 Y-4.000
G1 X29.500 Y-4.500
G1 X30.500 Y-4.000
G1 X32.000 Y-3.500
G1 X33.000
G0 Z1.000 ( Pen-Up )
G0 X28.000 Y1.500
G1 Z-1.000 ( Pen-Down )
G1 X29.000
G1 X30.500 Y2.000
G1 X31.500 Y2.500
G1 X32.000 Y2.000
G1 X33.000 Y1.500
G1 X34.000
G1 X33.000 Y1.000
G1 Y-3.500
G0 Z1.000 ( Pen-Up )
G0 X31.000 Y2.000
G1 Z-1.000 ( Pen-Down )
G1 X32.500 Y1.000
G1 Y-3.000
G0 Z1.000 ( Pen-Up )
G0 X30.500 Y2.000
G1 Z-1.000 ( Pen-Down )
G1 X31.000 Y1.500
G1 X32.000 Y1.000
G1 Y-3.500
G0 Z1.000 ( Pen-Up, EOG )
;  = 
G0 Z1.000 ( Pen-Up, EOG )
;h = LHMJMXKYLYNZO[ RNJMHNGNYPZ RLHOFOXQYO[ ROPROTNUMVNXOYOWPWYU[T] RTNVOVYU[ RROSOUPUYT]T`UbVbT`
G0 X44.500 Y5.000
G1 Z-1.000 ( Pen-Down )
G1 X45.000 Y4.000
G1 Y-3.000
G1 X44.000 Y-3.500
G1 X44.500
G1 X45.500 Y-4.000
G1 X46.000 Y-4.500
G0 Z1.000 ( Pen-Up )
G0 X45.500 Y4.000
G1 Z-1.000 ( Pen-Down )
G1 X45.000 Y5.000
G1 X45.500 Y5.500
G1 Y-3.500
G1 X46.500 Y-4.000
G0 Z1.000 ( Pen-Up )
G0 X44.500 Y5.000
G1 Z-1.000 ( Pen-Down )
G1 X46.000 Y6.000
G1 Y-3.000
G1 X47.000 Y-3.500
G1 X46.000 Y-4.500
G0 Z1.000 ( Pen-Up )
G0 Y1.000
G1 Z-1.000 ( Pen-Down )
G1 X47.500 Y1.500
G1 X48.500 Y2.000
G1 X49.000 Y2.500
G1 X49.500 Y2.000
G1 X50.500 Y1.500
G1 X51.000
G1 X50.000 Y1.000
G1 Y-3.500
G1 X49.000 Y-4.500
G1 X48.500 Y-5.500
G0 Z1.000 ( Pen-Up )
G0 Y2.000
G1 Z-1.000 ( Pen-Down )
G1 X49.500 Y1.500
G1 Y-3.500
G1 X49.000 Y-4.500
G0 Z1.000 ( Pen-Up )
G0 X47.500 Y1.500
G1 Z-1.000 ( Pen-Down )
G1 X48.000
G1 X49.000 Y1.000
G1 Y-3.500
G1 X48.500 Y-5.500
G1 Y-7.000
G1 X49.000 Y-8.000
G1 X49.500
G1 X48.500 Y-7.000
G0 Z1.000 ( Pen-Up, EOG )
;o = MOMXKY RNPNXQZ ROOOXQYRZ RKYMYOZP[RZUYWY RMOOORNTMUNWOYOWPWY RSNVPVX RRNSOUPUY
G0 X54.000 Y1.500
G1 Z-1.000 ( Pen-Down )
G1 Y-3.000
G1 X53.000 Y-3.500
G0 Z1.000 ( Pen-Up )
G0 X54.500 Y1.000
G1 Z-1.000 ( Pen-Down )
G1 Y-3.000
G1 X56.000 Y-4.000
G0 Z1.000 ( Pen-Up )
G0 X55.000 Y1.500
G1 Z-1.000 ( Pen-Down )
G1 Y-3.000
G1 X56.000 Y-3.500
G1 X56.500 Y-4.000
G0 Z1.000 ( Pen-Up )
G0 X53.000 Y-3.500
G1 Z-1.000 ( Pen-Down )
G1 X54.000
G1 X55.000 Y-4.000
G1 X55.500 Y-4.500
G1 X56.500 Y-4.000
G1 X58.000 Y-3.500
G1 X59.000
G0 Z1.000 ( Pen-Up )
G0 X54.000 Y1.500
G1 Z-1.000 ( Pen-Down )
G1 X55.000
G1 X56.500 Y2.000
G1 X57.500 Y2.500
G1 X58.000 Y2.000
G1 X59.000 Y1.500
G1 X60.000
G1 X59.000 Y1.000
G1 Y-3.500
G0 Z1.000 ( Pen-Up )
G0 X57.000 Y2.000
G1 Z-1.000 ( Pen-Down )
G1 X58.500 Y1.000
G1 Y-3.000
G0 Z1.000 ( Pen-Up )
G0 X56.500 Y2.000
G1 Z-1.000 ( Pen-Down )
G1 X57.000 Y1.500
G1 X58.000 Y1.000
G1 Y-3.500
G0 Z1.000 ( Pen-Up, EOG )
;w = HMIOIXL[NYQX RINJOJXMZ RHMJNKOKWLXNY RQMOOQPQXT[VYYX[X RPNRORXUZ RQMRNTOSPSWTXVY RYMZN\O]O[P[X RXNZOZW RYMWOYPYX
G0 X62.500 Y2.500
G1 Z-1.000 ( Pen-Down )
G1 X63.000 Y1.500
G1 Y-3.000
G1 X64.500 Y-4.500
G1 X65.500 Y-3.500
G1 X67.000 Y-3.000
G0 Z1.000 ( Pen-Up )
G0 X63.000 Y2.000
G1 Z-1.000 ( Pen-Down )
G1 X63.500 Y1.500
G1 Y-3.000
G1 X65.000 Y-4.000
G0 Z1.000 ( Pen-Up )
G0 X62.500 Y2.500
G1 Z-1.000 ( Pen-Down )
G1 X63.500 Y2.000
G1 X64.000 Y1.500
G1 Y-2.500
G1 X64.500 Y-3.000
G1 X65.500 Y-3.500
G0 Z1.000 ( Pen-Up )
G0 X67.000 Y2.500
G1 Z-1.000 ( Pen-Down )
G1 X66.000 Y1.500
G1 X67.000 Y1.000
G1 Y-3.000
G1 X68.500 Y-4.500
G1 X69.500 Y-3.500
G1 X71.000 Y-3.000
G1 X72.000
G0 Z1.000 ( Pen-Up )
G0 X66.500 Y2.000
G1 Z-1.000 ( Pen-Down )
G1 X67.500 Y1.500
G1 Y-3.000
G1 X69.000 Y-4.000
G0 Z1.000 ( Pen-Up )
G0 X67.000 Y2.500
G1 Z-1.000 ( Pen-Down )
G1 X67.500 Y2.000
G1 X68.500 Y1.500
G1 X68.000 Y1.000
G1 Y-2.500
G1 X68.500 Y-3.000
G1 X69.500 Y-3.500
G0 Z1.000 ( Pen-Up )
G0 X71.000 Y2.500
G1 Z-1.000 ( Pen-Down )
G1 X71.500 Y2.000
G1 X72.500 Y1.500
G1 X73.000
G1 X72.000 Y1.000
G1 Y-3.000
G0 Z1.000 ( Pen-Up )
G0 X70.500 Y2.000
G1 Z-1.000 ( Pen-Down )
G1 X71.500 Y1.500
G1 Y-2.500
G0 Z1.000 ( Pen-Up )
G0 X71.000 Y2.500
G1 Z-1.000 ( Pen-Down )
G1 X70.000 Y1.500
G1 X71.000 Y1.000
G1 Y-3.000
G0 Z1.000 ( Pen-Up, EOG )
( Linefeed )
;a = PRNTMVMXNZP[RYUX RMVNXOYQZ RNTNVOXQYRY RNPPPSOUNVMXOWPWXXYYY RONNOQO RTOWOVNVYWZ RMOOMPNROUPUYW[YY RMORT
G0 X3.000 Y-15.000
G1 Z-1.000 ( Pen-Down )
G1 X2.000 Y-16.000
G1 X1.500 Y-17.000
G1 Y-18.000
G1 X2.000 Y-19.000
G1 X3.000 Y-19.500
G1 X4.000 Y-18.500
G1 X5.500 Y-18.000
G0 Z1.000 ( Pen-Up )
G0 X1.500 Y-17.000
G1 Z-1.000 ( Pen-Down )
G1 X2.000 Y-18.000
G1 X2.500 Y-18.500
G1 X3.500 Y-19.000
G0 Z1.000 ( Pen-Up )
G0 X2.000 Y-16.000
G1 Z-1.000 ( Pen-Down )
G1 Y-17.000
G1 X2.500 Y-18.000
G1 X3.500 Y-18.500
G1 X4.000
G0 Z1.000 ( Pen-Up )
G0 X2.000 Y-14.000
G1 Z-1.000 ( Pen-Down )
G1 X3.000
G1 X4.500 Y-13.500
G1 X5.500 Y-13.000
G1 X6.000 Y-12.500
G1 X7.000 Y-13.500
G1 X6.500 Y-14.000
G1 Y-18.000
G1 X7.000 Y-18.500
G1 X7.500
G0 Z1.000 ( Pen-Up )
G0 X2.500 Y-13.000
G1 Z-1.000 ( Pen-Down )
G1 X2.000 Y-13.500
G1 X3.500
G0 Z1.000 ( Pen-Up )
G0 X5.000
G1 Z-1.000 ( Pen-Down )
G1 X6.500
G1 X6.000 Y-13.000
G1 Y-18.500
G1 X6.500 Y-19.000
G0 Z1.000 ( Pen-Up )
G0 X1.500 Y-13.500
G1 Z-1.000 ( Pen-Down )
G1 X2.500 Y-12.500
G1 X3.000 Y-13.000
G1 X4.000 Y-13.500
G1 X5.500 Y-14.000
G1 Y-18.500
G1 X6.500 Y-19.500
G1 X7.500 Y-18.500
G0 Z1.000 ( Pen-Up )
G0 X1.500 Y-13.500
G1 Z-1.000 ( Pen-Down )
G1 X4.000 Y-16.000
G0 Z1.000 ( Pen-Up, EOG )
;r = LOMONPNXLYMYOZP[ RMNOOOYQZ RLONMPOPXRYSYQZP[ RPOTMUNWOXO RSNTOVO RRNTPVPXO
G0 X9.500 Y-13.500
G1 Z-1.000 ( Pen-Down )
G1 X10.000
G1 X10.500 Y-14.000
G1 Y-18.000
G1 X9.500 Y-18.500
G1 X10.000
G1 X11.000 Y-19.000
G1 X11.500 Y-19.500
G0 Z1.000 ( Pen-Up )
G0 X10.000 Y-13.000
G1 Z-1.000 ( Pen-Down )
G1 X11.000 Y-13.500
G1 Y-18.500
G1 X12.000 Y-19.000
G0 Z1.000 ( Pen-Up )
G0 X9.500 Y-13.500
G1 Z-1.000 ( Pen-Down )
G1 X10.500 Y-12.500
G1 X11.500 Y-13.500
G1 Y-18.000
G1 X12.500 Y-18.500
G1 X13.000
G1 X12.000 Y-19.000
G1 X11.500 Y-19.500
G0 Z1.000 ( Pen-Up )
G0 Y-13.500
G1 Z-1.000 ( Pen-Down )
G1 X13.500 Y-12.500
G1 X14.000 Y-13.000
G1 X15.000 Y-13.500
G1 X15.500
G0 Z1.000 ( Pen-Up )
G0 X13.000 Y-13.000
G1 Z-1.000 ( Pen-Down )
G1 X13.500 Y-13.500
G1 X14.500
G0 Z1.000 ( Pen-Up )
G0 X12.500 Y-13.000
G1 Z-1.000 ( Pen-Down )
G1 X13.500 Y-14.000
G1 X14.500
G1 X15.500 Y-13.500
G0 Z1.000 ( Pen-Up, EOG )
;e = NONXLYMYOZP[ ROOOYQZ RPOPXRYSYQZP[ RNORNTMWQURPU RSNVQ RPORNUR
G0 X17.500
G1 Z-1.000 ( Pen-Down )
G1 Y-18.000
G1 X16.500 Y-18.500
G1 X17.000
G1 X18.000 Y-19.000
G1 X18.500 Y-19.500
G0 Z1.000 ( Pen-Up )
G0 X18.000 Y-13.500
G1 Z-1.000 ( Pen-Down )
G1 Y-18.500
G1 X19.000 Y-19.000
G0 Z1.000 ( Pen-Up )
G0 X18.500 Y-13.500
G1 Z-1.000 ( Pen-Down )
G1 Y-18.000
G1 X19.500 Y-18.500
G1 X20.000
G1 X19.000 Y-19.000
G1 X18.500 Y-19.500
G0 Z1.000 ( Pen-Up )
G0 X17.500 Y-13.500
G1 Z-1.000 ( Pen-Down )
G1 X19.500 Y-13.000
G1 X20.500 Y-12.500
G1 X22.000 Y-14.500
G1 X21.000 Y-15.000
G1 X18.500 Y-16.500
G0 Z1.000 ( Pen-Up )
G0 X20.000 Y-13.000
G1 Z-1.000 ( Pen-Down )
G1 X21.500 Y-14.500
G0 Z1.000 ( Pen-Up )
G0 X18.500 Y-13.500
G1 Z-1.000 ( Pen-Down )
G1 X19.500 Y-13.000
G1 X21.000 Y-15.000
G0 Z1.000 ( Pen-Up, EOG )
;  = 
G0 Z1.000 ( Pen-Up, EOG )
;y = KOLOMPMXKY RLNNONYPZ RKOMMOOOXQYRY RKYLYNZO[PZRYUX RUMVNXOYOWPW\V_TaRbQaO`M` RTNVOV\ RSaQ`P` RUMSOUPUZV]V_ RTaS`Q_O_M`
G0 X31.500 Y-13.500
G1 Z-1.000 ( Pen-Down )
G1 X32.000
G1 X32.500 Y-14.000
G1 Y-18.000
G1 X31.500 Y-18.500
G0 Z1.000 ( Pen-Up )
G0 X32.000 Y-13.000
G1 Z-1.000 ( Pen-Down )
G1 X33.000 Y-13.500
G1 Y-18.500
G1 X34.000 Y-19.000
G0 Z1.000 ( Pen-Up )
G0 X31.500 Y-13.500
G1 Z-1.000 ( Pen-Down )
G1 X32.500 Y-12.500
G1 X33.500 Y-13.500
G1 Y-18.000
G1 X34.500 Y-18.500
G1 X35.000
G0 Z1.000 ( Pen-Up )
G0 X31.500
G1 Z-1.000 ( Pen-Down )
G1 X32.000
G1 X33.000 Y-19.000
G1 X33.500 Y-19.500
G1 X34.000 Y-19.000
G1 X35.000 Y-18.500
G1 X36.500 Y-18.000
G0 Z1.000 ( Pen-Up )
G0 Y-12.500
G1 Z-1.000 ( Pen-Down )
G1 X37.000 Y-13.000
G1 X38.000 Y-13.500
G1 X38.500
G1 X37.500 Y-14.000
G1 Y-20.000
G1 X37.000 Y-21.500
G1 X36.000 Y-22.500
G1 X35.000 Y-23.000
G1 X34.500 Y-22.500
G1 X33.500 Y-22.000
G1 X32.500
G0 Z1.000 ( Pen-Up )
G0 X36.000 Y-13.000
G1 Z-1.000 ( Pen-Down )
G1 X37.000 Y-13.500
G1 Y-20.000
G0 Z1.000 ( Pen-Up )
G0 X35.500 Y-22.500
G1 Z-1.000 ( Pen-Down )
G1 X34.500 Y-22.000
G1 X34.000
G0 Z1.000 ( Pen-Up )
G0 X36.500 Y-12.500
G1 Z-1.000 ( Pen-Down )
G1 X35.500 Y-13.500
G1 X36.500 Y-14.000
G1 Y-19.000
G1 X37.000 Y-20.500
G1 Y-21.500
G0 Z1.000 ( Pen-Up )
G0 X36.000 Y-22.500
G1 Z-1.000 ( Pen-Down )
G1 X35.500 Y-22.000
G1 X34.500 Y-21.500
G1 X33.500
G1 X32.500 Y-22.000
G0 Z1.000 ( Pen-Up, EOG )
;o = MOMXKY RNPNXQZ ROOOXQYRZ RKYMYOZP[RZUYWY RMOOORNTMUNWOYOWPWY RSNVPVX RRNSOUPUY
G0 X41.500 Y-13.500
G1 Z-1.000 ( Pen-Down )
G1 Y-18.000
G1 X40.500 Y-18.500
G0 Z1.000 ( Pen-Up )
G0 X42.000 Y-14.000
G1 Z-1.000 ( Pen-Down )
G1 Y-18.000
G1 X43.500 Y-19.000
G0 Z1.000 ( Pen-Up )
G0 X42.500 Y-13.500
G1 Z-1.000 ( Pen-Down )
G1 Y-18.000
G1 X43.500 Y-18.500
G1 X44.000 Y-19.000
G0 Z1.000 ( Pen-Up )
G0 X40.500 Y-18.500
G1 Z-1.000 ( Pen-Down )
G1 X41.500
G1 X42.500 Y-19.000
G1 X43.000 Y-19.500
G1 X44.000 Y-19.000
G1 X45.500 Y-18.500
G1 X46.500
G0 Z1.000 ( Pen-Up )
G0 X41.500 Y-13.500
G1 Z-1.000 ( Pen-Down )
G1 X42.500
G1 X44.000 Y-13.000
G1 X45.000 Y-12.500
G1 X45.500 Y-13.000
G1 X46.500 Y-13.500
G1 X47.500
G1 X46.500 Y-14.000
G1 Y-18.500
G0 Z1.000 ( Pen-Up )
G0 X44.500 Y-13.000
G1 Z-1.000 ( Pen-Down )
G1 X46.000 Y-14.000
G1 Y-18.000
G0 Z1.000 ( Pen-Up )
G0 X44.000 Y-13.000
G1 Z-1.000 ( Pen-Down )
G1 X44.500 Y-13.500
G1 X45.500 Y-14.000
G1 Y-18.500
G0 Z1.000 ( Pen-Up, EOG )
;u = KOLOMPMXKY RLNNONYPZ RKOMMOOOXQYRY RKYLYNZO[PZRYUX RUMVNXOYOWPWXXYYY RTNVOVYWZ RUMSOUPUYW[YY
G0 X49.500 Y-13.500
G1 Z-1.000 ( Pen-Down )
G1 X50.000
G1 X50.500 Y-14.000
G1 Y-18.000
G1 X49.500 Y-18.500
G0 Z1.000 ( Pen-Up )
G0 X50.000 Y-13.000
G1 Z-1.000 ( Pen-Down )
G1 X51.000 Y-13.500
G1 Y-18.500
G1 X52.000 Y-19.000
G0 Z1.000 ( Pen-Up )
G0 X49.500 Y-13.500
G1 Z-1.000 ( Pen-Down )
G1 X50.500 Y-12.500
G1 X51.500 Y-13.500
G1 Y-18.000
G1 X52.500 Y-18.500
G1 X53.000
G0 Z1.000 ( Pen-Up )
G0 X49.500
G1 Z-1.000 ( Pen-Down )
G1 X50.000
G1 X51.000 Y-19.000
G1 X51.500 Y-19.500
G1 X52.000 Y-19.000
G1 X53.000 Y-18.500
G1 X54.500 Y-18.000
G0 Z1.000 ( Pen-Up )
G0 Y-12.500
G1 Z-1.000 ( Pen-Down )
G1 X55.000 Y-13.000
G1 X56.000 Y-13.500
G1 X56.500
G1 X55.500 Y-14.000
G1 Y-18.000
G1 X56.000 Y-18.500
G1 X56.500
G0 Z1.000 ( Pen-Up )
G0 X54.000 Y-13.000
G1 Z-1.000 ( Pen-Down )
G1 X55.000 Y-13.500
G1 Y-18.500
G1 X55.500 Y-19.000
G0 Z1.000 ( Pen-Up )
G0 X54.500 Y-12.500
G1 Z-1.000 ( Pen-Down )
G1 X53.500 Y-13.500
G1 X54.500 Y-14.000
G1 Y-18.500
G1 X55.500 Y-19.500
G1 X56.500 Y-18.500
G0 Z1.000 ( Pen-Up, EOG )
;  = 
G0 Z1.000 ( Pen-Up, EOG )
;d = RMPNMOMXKY RNONXQZ RRMOOOXQYRZ RKYMYOZP[RZUYWY RMHPFQIWOWY RPINHOGPIVOVX RMHUPUY
G0 X70.000 Y-12.500
G1 Z-1.000 ( Pen-Down )
G1 X69.000 Y-13.000
G1 X67.500 Y-13.500
G1 Y-18.000
G1 X66.500 Y-18.500
G0 Z1.000 ( Pen-Up )
G0 X68.000 Y-13.500
G1 Z-1.000 ( Pen-Down )
G1 Y-18.000
G1 X69.500 Y-19.000
G0 Z1.000 ( Pen-Up )
G0 X70.000 Y-12.500
G1 Z-1.000 ( Pen-Down )
G1 X68.500 Y-13.500
G1 Y-18.000
G1 X69.500 Y-18.500
G1 X70.000 Y-19.000
G0 Z1.000 ( Pen-Up )
G0 X66.500 Y-18.500
G1 Z-1.000 ( Pen-Down )
G1 X67.500
G1 X68.500 Y-19.000
G1 X69.000 Y-19.500
G1 X70.000 Y-19.000
G1 X71.500 Y-18.500
G1 X72.500
G0 Z1.000 ( Pen-Up )
G0 X67.500 Y-10.000
G1 Z-1.000 ( Pen-Down )
G1 X69.000 Y-9.000
G1 X69.500 Y-10.500
G1 X72.500 Y-13.500
G1 Y-18.500
G0 Z1.000 ( Pen-Up )
G0 X69.000 Y-10.500
G1 Z-1.000 ( Pen-Down )
G1 X68.000 Y-10.000
G1 X68.500 Y-9.500
G1 X69.000 Y-10.500
G1 X72.000 Y-13.500
G1 Y-18.000
G0 Z1.000 ( Pen-Up )
G0 X67.500 Y-10.000
G1 Z-1.000 ( Pen-Down )
G1 X71.500 Y-14.000
G1 Y-18.500
G0 Z1.000 ( Pen-Up, EOG )
;o = MOMXKY RNPNXQZ ROOOXQYRZ RKYMYOZP[RZUYWY RMOOORNTMUNWOYOWPWY RSNVPVX RRNSOUPUY
G0 X76.000 Y-13.500
G1 Z-1.000 ( Pen-Down )
G1 Y-18.000
G1 X75.000 Y-18.500
G0 Z1.000 ( Pen-Up )
G0 X76.500 Y-14.000
G1 Z-1.000 ( Pen-Down )
G1 Y-18.000
G1 X78.000 Y-19.000
G0 Z1.000 ( Pen-Up )
G0 X77.000 Y-13.500
G1 Z-1.000 ( Pen-Down )
G1 Y-18.000
G1 X78.000 Y-18.500
G1 X78.500 Y-19.000
G0 Z1.000 ( Pen-Up )
G0 X75.000 Y-18.500
G1 Z-1.000 ( Pen-Down )
G1 X76.000
G1 X77.000 Y-19.000
G1 X77.500 Y-19.500
G1 X78.500 Y-19.000
G1 X80.000 Y-18.500
G1 X81.000
G0 Z1.000 ( Pen-Up )
G0 X76.000 Y-13.500
G1 Z-1.000 ( Pen-Down )
G1 X77.000
G1 X78.500 Y-13.000
G1 X79.500 Y-12.500
G1 X80.000 Y-13.000
G1 X81.000 Y-13.500
G1 X82.000
G1 X81.000 Y-14.000
G1 Y-18.500
G0 Z1.000 ( Pen-Up )
G0 X79.000 Y-13.000
G1 Z-1.000 ( Pen-Down )
G1 X80.500 Y-14.000
G1 Y-18.000
G0 Z1.000 ( Pen-Up )
G0 X78.500 Y-13.000
G1 Z-1.000 ( Pen-Down )
G1 X79.000 Y-13.500
G1 X80.000 Y-14.000
G1 Y-18.500
G0 Z1.000 ( Pen-Up, EOG )
;i = RFPHRITHRF RRGQHSHRG RRMQNOOQPQYS[UY RRPSORNQORPRYSZ RRMSNUOSPSXTYUY
G0 X85.500 Y-9.000
G1 Z-1.000 ( Pen-Down )
G1 X84.500 Y-10.000
G1 X85.500 Y-10.500
G1 X86.500 Y-10.000
G1 X85.500 Y-9.000
G0 Z1.000 ( Pen-Up )
G0 Y-9.500
G1 Z-1.000 ( Pen-Down )
G1 X85.000 Y-10.000
G1 X86.000
G1 X85.500 Y-9.500
G0 Z1.000 ( Pen-Up )
G0 Y-12.500
G1 Z-1.000 ( Pen-Down )
G1 X85.000 Y-13.000
G1 X84.000 Y-13.500
G1 X85.000 Y-14.000
G1 Y-18.500
G1 X86.000 Y-19.500
G1 X87.000 Y-18.500
G0 Z1.000 ( Pen-Up )
G0 X85.500 Y-14.000
G1 Z-1.000 ( Pen-Down )
G1 X86.000 Y-13.500
G1 X85.500 Y-13.000
G1 X85.000 Y-13.500
G1 X85.500 Y-14.000
G1 Y-18.500
G1 X86.000 Y-19.000
G0 Z1.000 ( Pen-Up )
G0 X85.500 Y-12.500
G1 Z-1.000 ( Pen-Down )
G1 X86.000 Y-13.000
G1 X87.000 Y-13.500
G1 X86.000 Y-14.000
G1 Y-18.000
G1 X86.500 Y-18.500
G1 X87.000
G0 Z1.000 ( Pen-Up, EOG )
;n = KOLOMPMXKYLYNZO[ RMNNONYPZ RKOMMOOOXQYO[ ROPROTNUMVNXOYOWPWXXYYY RTNVOVYWZ RROSOUPUYW[YY
G0 X89.000 Y-13.500
G1 Z-1.000 ( Pen-Down )
G1 X89.500
G1 X90.000 Y-14.000
G1 Y-18.000
G1 X89.000 Y-18.500
G1 X89.500
G1 X90.500 Y-19.000
G1 X91.000 Y-19.500
G0 Z1.000 ( Pen-Up )
G0 X90.000 Y-13.000
G1 Z-1.000 ( Pen-Down )
G1 X90.500 Y-13.500
G1 Y-18.500
G1 X91.500 Y-19.000
G0 Z1.000 ( Pen-Up )
G0 X89.000 Y-13.500
G1 Z-1.000 ( Pen-Down )
G1 X90.000 Y-12.500
G1 X91.000 Y-13.500
G1 Y-18.000
G1 X92.000 Y-18.500
G1 X91.000 Y-19.500
G0 Z1.000 ( Pen-Up )
G0 Y-14.000
G1 Z-1.000 ( Pen-Down )
G1 X92.500 Y-13.500
G1 X93.500 Y-13.000
G1 X94.000 Y-12.500
G1 X94.500 Y-13.000
G1 X95.500 Y-13.500
G1 X96.000
G1 X95.000 Y-14.000
G1 Y-18.000
G1 X95.500 Y-18.500
G1 X96.000
G0 Z1.000 ( Pen-Up )
G0 X93.500 Y-13.000
G1 Z-1.000 ( Pen-Down )
G1 X94.500 Y-13.500
G1 Y-18.500
G1 X95.000 Y-19.000
G0 Z1.000 ( Pen-Up )
G0 X92.500 Y-13.500
G1 Z-1.000 ( Pen-Down )
G1 X93.000
G1 X94.000 Y-14.000
G1 Y-18.500
G1 X95.000 Y-19.500
G1 X96.000 Y-18.500
G0 Z1.000 ( Pen-Up, EOG )
;g = MOMXKYLYNZO[PZRYUX RNPNYPZ ROOOXQYRY RMOOORNTMUNWOYOWPW\V_TaRbQaO`M` RSNVPV\ RSaQ`P` RRNSOUPUZV]V_ RTaS`Q_O_M`
G0 X99.000 Y-13.500
G1 Z-1.000 ( Pen-Down )
G1 Y-18.000
G1 X98.000 Y-18.500
G1 X98.500
G1 X99.500 Y-19.000
G1 X100.000 Y-19.500
G1 X100.500 Y-19.000
G1 X101.500 Y-18.500
G1 X103.000 Y-18.000
G0 Z1.000 ( Pen-Up )
G0 X99.500 Y-14.000
G1 Z-1.000 ( Pen-Down )
G1 Y-18.500
G1 X100.500 Y-19.000
G0 Z1.000 ( Pen-Up )
G0 X100.000 Y-13.500
G1 Z-1.000 ( Pen-Down )
G1 Y-18.000
G1 X101.000 Y-18.500
G1 X101.500
G0 Z1.000 ( Pen-Up )
G0 X99.000 Y-13.500
G1 Z-1.000 ( Pen-Down )
G1 X100.000
G1 X101.500 Y-13.000
G1 X102.500 Y-12.500
G1 X103.000 Y-13.000
G1 X104.000 Y-13.500
G1 X105.000
G1 X104.000 Y-14.000
G1 Y-20.000
G1 X103.500 Y-21.500
G1 X102.500 Y-22.500
G1 X101.500 Y-23.000
G1 X101.000 Y-22.500
G1 X100.000 Y-22.000
G1 X99.000
G0 Z1.000 ( Pen-Up )
G0 X102.000 Y-13.000
G1 Z-1.000 ( Pen-Down )
G1 X103.500 Y-14.000
G1 Y-20.000
G0 Z1.000 ( Pen-Up )
G0 X102.000 Y-22.500
G1 Z-1.000 ( Pen-Down )
G1 X101.000 Y-22.000
G1 X100.500
G0 Z1.000 ( Pen-Up )
G0 X101.500 Y-13.000
G1 Z-1.000 ( Pen-Down )
G1 X102.000 Y-13.500
G1 X103.000 Y-14.000
G1 Y-19.000
G1 X103.500 Y-20.500
G1 Y-21.500
G0 Z1.000 ( Pen-Up )
G0 X102.500 Y-22.500
G1 Z-1.000 ( Pen-Down )
G1 X102.000 Y-22.000
G1 X101.000 Y-21.500
G1 X100.000
G1 X99.000 Y-22.000
G0 Z1.000 ( Pen-Up, EOG )
( Linefeed )
M5 (stop the spindle)
M30 (Program stop, rewind to beginning of program)
